symbolic/24x24/apps/bandcamp.svg

<svg xmlns="http://www.w3.org/2000/svg" width="24" height="24" version="1">
 <path style="opacity:0.2" d="m 5,5.5 c -1.6567856,1.657e-4 -2.9998343,1.3432144 -3,3 v 5 3 c 1.657e-4,1.656786 1.3432144,2.999834 3,3 h 2 c 0.2068189,-8.72e-4 0.4129934,-0.02313 0.6152345,-0.06641 0.128584,0.0086 0.249752,0.06613 0.378906,0.06641 H 8 c 1.4821855,0 2.808717,-0.610755 3.863281,-1.523438 C 13.039176,18.870606 14.428207,19.5 16,19.5 h 0.0039 c 2.492879,-0.0032 4.306296,-1.341101 5.552735,-3.5 0.64609,-1.122613 0.498821,-2.533107 -0.365229,-3.498047 C 22.057932,11.536735 22.206064,10.123964 21.558594,9 20.311549,6.840054 18.496043,5.501973 16.001953,5.5 H 16 C 13.814418,5.5 11.927917,6.5955995 10.638672,8.1933595 10.408854,8.07685 10.182447,7.984919 9.9375,7.8984375 9.6517753,6.5030436 8.4243462,5.5008608 7,5.5 Z"/>
 <path style="fill:#4f4f4f" d="M 5,5 C 3.3432144,5.0001657 2.0001657,6.3432144 2,8 v 5 3 c 1.657e-4,1.656786 1.3432144,2.999834 3,3 h 2 c 0.2068189,-8.72e-4 0.4129934,-0.02313 0.6152345,-0.06641 0.128584,0.0086 0.249752,0.06613 0.378906,0.06641 H 8 c 1.4821855,0 2.808717,-0.610755 3.863281,-1.523438 C 13.039176,18.370606 14.428207,19 16,19 h 0.0039 c 2.492879,-0.0032 4.306296,-1.341101 5.552735,-3.5 0.64609,-1.122613 0.498821,-2.533107 -0.365229,-3.498047 C 22.057932,11.036735 22.206064,9.6239636 21.558594,8.5 20.311549,6.340054 18.496043,5.001973 16.001953,5 H 16 C 13.814418,5 11.927917,6.0955995 10.638672,7.6933595 10.408854,7.57685 10.182447,7.484919 9.9375,7.3984375 9.6517753,6.0030436 8.4243462,5.0008608 7,5 Z"/>
 <path style="opacity:0.2" d="m 5,8.5 v 5 3 H 7 V 16.325195 A 3,3 0 0 0 8,16.5 a 3,3 0 0 0 3,-3 3,3 0 0 0 -3,-3 3,3 0 0 0 -1,0.175781 V 8.5 Z m 11,0 a 4,4 0 0 0 -4,4 4,4 0 0 0 4,4 4,4 0 0 0 3.458008,-2 H 16 a 2,2 0 0 1 -2,-2 2,2 0 0 1 2,-2 h 3.459961 A 4,4 0 0 0 16,8.5 Z m -8,4 a 1,1 0 0 1 1,1 1,1 0 0 1 -1,1 1,1 0 0 1 -1,-1 1,1 0 0 1 1,-1 z"/>
 <g style="fill:#74bed2" transform="matrix(0.5,0,0,0.5,-6,0)">
  <path style="fill:#74bed2" transform="matrix(2,0,0,2,12,0)" d="M 5 8 L 5 13 L 5 16 L 7 16 L 7 15.826172 A 3 3 0 0 0 8 16 A 3 3 0 0 0 11 13 A 3 3 0 0 0 8 10 A 3 3 0 0 0 7 10.175781 L 7 8 L 5 8 z M 16 8 A 4 4 0 0 0 12 12 A 4 4 0 0 0 16 16 A 4 4 0 0 0 19.458984 14 L 16 14 A 2 2 0 0 1 14 12 A 2 2 0 0 1 16 10 L 19.460938 10 A 4 4 0 0 0 16 8 z M 8 12 A 1 1 0 0 1 9 13 A 1 1 0 0 1 8 14 A 1 1 0 0 1 7 13 A 1 1 0 0 1 8 12 z"/>
  <path style="fill:none" transform="matrix(2,0,0,2,12,0)" d="M 5 8 L 5 13 L 5 16 L 7 16 L 7 15.826172 A 3 3 0 0 0 8 16 A 3 3 0 0 0 11 13 A 3 3 0 0 0 8 10 A 3 3 0 0 0 7 10.175781 L 7 8 L 5 8 z M 16 8 A 4 4 0 0 0 12 12 A 4 4 0 0 0 16 16 A 4 4 0 0 0 19.458984 14 L 16 14 A 2 2 0 0 1 14 12 A 2 2 0 0 1 16 10 L 19.460938 10 A 4 4 0 0 0 16 8 z M 8 12 A 1 1 0 0 1 9 13 A 1 1 0 0 1 8 14 A 1 1 0 0 1 7 13 A 1 1 0 0 1 8 12 z"/>
 </g>
 <path style="opacity:0.1;fill:#ffffff" d="M 5 5 C 3.3432144 5.0001657 2.0001657 6.3432144 2 8 L 2 8.5 C 2.0001657 6.8432144 3.3432144 5.5001657 5 5.5 L 7 5.5 C 8.4243462 5.5008608 9.6517753 6.5030436 9.9375 7.8984375 C 10.182447 7.984919 10.408854 8.0768499 10.638672 8.1933594 C 11.927917 6.5955994 13.814418 5.5 16 5.5 L 16.001953 5.5 C 18.496043 5.501973 20.311549 6.840054 21.558594 9 C 21.78673 9.3960285 21.911348 9.828144 21.945312 10.263672 C 21.998747 9.6639686 21.87413 9.0477485 21.558594 8.5 C 20.311549 6.340054 18.496043 5.001973 16.001953 5 L 16 5 C 13.814418 5 11.927917 6.0955994 10.638672 7.6933594 C 10.408854 7.5768499 10.182447 7.484919 9.9375 7.3984375 C 9.6517753 6.0030436 8.4243462 5.0008608 7 5 L 5 5 z M 21.382812 12.251953 C 21.321391 12.336836 21.262558 12.422698 21.191406 12.501953 C 21.636649 12.999184 21.887297 13.614553 21.941406 14.248047 C 21.998668 13.546611 21.806667 12.839107 21.382812 12.251953 z"/>
</svg>

<svg xmlns="http://www.w3.org/2000/svg" width="24" height="24" version="1"><path style="opacity:.2" d="M5 5.5a3 3 0 0 0-3 3v8a3 3 0 0 0 3 3h2a3 3 0 0 0 .615-.066c.129.008.25.066.38.066H8c1.482 0 2.809-.61 3.863-1.523C13.04 18.87 14.428 19.5 16 19.5h.004c2.493-.003 4.306-1.341 5.553-3.5a3 3 0 0 0-.366-3.498A3 3 0 0 0 21.56 9c-1.247-2.16-3.063-3.498-5.557-3.5H16c-2.186 0-4.072 1.096-5.361 2.693a5.756 5.756 0 0 0-.701-.295A3 3 0 0 0 7 5.5z"/><path style="fill:#4f4f4f" d="M5 5a3 3 0 0 0-3 3v8a3 3 0 0 0 3 3h2a3 3 0 0 0 .615-.066c.129.008.25.066.38.066H8c1.482 0 2.809-.61 3.863-1.523C13.04 18.37 14.428 19 16 19h.004c2.493-.003 4.306-1.341 5.553-3.5a3 3 0 0 0-.366-3.498A3 3 0 0 0 21.56 8.5c-1.247-2.16-3.063-3.498-5.557-3.5H16c-2.186 0-4.072 1.096-5.361 2.693a5.756 5.756 0 0 0-.701-.295A3 3 0 0 0 7 5z"/><path style="opacity:.2" d="M5 8.5v8h2v-.175a3 3 0 0 0 1 .175 3 3 0 0 0 3-3 3 3 0 0 0-3-3 3 3 0 0 0-1 .176V8.5zm11 0a4 4 0 0 0-4 4 4 4 0 0 0 4 4 4 4 0 0 0 3.458-2H16a2 2 0 0 1-2-2 2 2 0 0 1 2-2h3.46a4 4 0 0 0-3.46-2zm-8 4a1 1 0 0 1 1 1 1 1 0 0 1-1 1 1 1 0 0 1-1-1 1 1 0 0 1 1-1z"/><g style="fill:#74bed2"><path style="fill:#74bed2" d="M5 8v8h2v-.174A3 3 0 0 0 8 16a3 3 0 0 0 3-3 3 3 0 0 0-3-3 3 3 0 0 0-1 .176V8H5zm11 0a4 4 0 0 0-4 4 4 4 0 0 0 4 4 4 4 0 0 0 3.459-2H16a2 2 0 0 1-2-2 2 2 0 0 1 2-2h3.46A4 4 0 0 0 16 8zm-8 4a1 1 0 0 1 1 1 1 1 0 0 1-1 1 1 1 0 0 1-1-1 1 1 0 0 1 1-1z"/><path style="fill:none" d="M5 8v8h2v-.174A3 3 0 0 0 8 16a3 3 0 0 0 3-3 3 3 0 0 0-3-3 3 3 0 0 0-1 .176V8H5zm11 0a4 4 0 0 0-4 4 4 4 0 0 0 4 4 4 4 0 0 0 3.459-2H16a2 2 0 0 1-2-2 2 2 0 0 1 2-2h3.46A4 4 0 0 0 16 8zm-8 4a1 1 0 0 1 1 1 1 1 0 0 1-1 1 1 1 0 0 1-1-1 1 1 0 0 1 1-1z"/></g><path style="opacity:.1;fill:#fff" d="M5 5a3 3 0 0 0-3 3v.5a3 3 0 0 1 3-3h2a3 3 0 0 1 2.938 2.398c.244.087.47.179.7.295C11.929 6.596 13.815 5.5 16 5.5h.002c2.494.002 4.31 1.34 5.557 3.5.228.396.352.828.386 1.264A2.994 2.994 0 0 0 21.56 8.5c-1.247-2.16-3.063-3.498-5.557-3.5H16c-2.186 0-4.072 1.096-5.361 2.693a5.756 5.756 0 0 0-.701-.295A3 3 0 0 0 7 5H5zm16.383 7.252c-.062.085-.12.17-.192.25a2.99 2.99 0 0 1 .75 1.746 2.99 2.99 0 0 0-.558-1.996z"/></svg>
